svgs/light/game-console-handheld-crank.svg

<svg xmlns="http://www.w3.org/2000/svg" viewBox="0 0 576 512"><!--! Font Awesome Pro 6.6.0 by @fontawesome - https://fontawesome.com License - https://fontawesome.com/license (Commercial License) Copyright 2024 Fonticons, Inc. --><path d="M64 64C46.3 64 32 78.3 32 96l0 320c0 17.7 14.3 32 32 32l320 0c17.7 0 32-14.3 32-32l0-144 0-176c0-17.7-14.3-32-32-32L64 64zM448 96l0 160 32 0 0-48 0-48c0-17.7 14.3-32 32-32l32 0c17.7 0 32 14.3 32 32l0 32c0 17.7-14.3 32-32 32l-32 0 0 48c0 8.8-7.2 16-16 16l-48 0 0 128c0 35.3-28.7 64-64 64L64 480c-35.3 0-64-28.7-64-64L0 96C0 60.7 28.7 32 64 32l320 0c35.3 0 64 28.7 64 64zM96 128l0 128 256 0 0-128L96 128zm-32 0c0-17.7 14.3-32 32-32l256 0c17.7 0 32 14.3 32 32l0 128c0 17.7-14.3 32-32 32L96 288c-17.7 0-32-14.3-32-32l0-128zm448 64l32 0 0-32-32 0 0 32zM128 336l0 16 16 0c8.8 0 16 7.2 16 16s-7.2 16-16 16l-16 0 0 16c0 8.8-7.2 16-16 16s-16-7.2-16-16l0-16-16 0c-8.8 0-16-7.2-16-16s7.2-16 16-16l16 0 0-16c0-8.8 7.2-16 16-16s16 7.2 16 16zm96 24a24 24 0 1 1 48 0 24 24 0 1 1 -48 0zm104-24a24 24 0 1 1 0 48 24 24 0 1 1 0-48z"/></svg>

<svg xmlns="http://www.w3.org/2000/svg" viewBox="0 0 576 512"><!--! Font Awesome Pro 6.5.2 by @fontawesome - https://fontawesome.com License - https://fontawesome.com/license (Commercial License) Copyright 2024 Fonticons, Inc. --><path d="M64 64C46.3 64 32 78.3 32 96V416c0 17.7 14.3 32 32 32H384c17.7 0 32-14.3 32-32V272 96c0-17.7-14.3-32-32-32H64zM448 96V256h32V208 160c0-17.7 14.3-32 32-32h32c17.7 0 32 14.3 32 32v32c0 17.7-14.3 32-32 32H512v48c0 8.8-7.2 16-16 16H448V416c0 35.3-28.7 64-64 64H64c-35.3 0-64-28.7-64-64V96C0 60.7 28.7 32 64 32H384c35.3 0 64 28.7 64 64zM96 128V256H352V128H96zm-32 0c0-17.7 14.3-32 32-32H352c17.7 0 32 14.3 32 32V256c0 17.7-14.3 32-32 32H96c-17.7 0-32-14.3-32-32V128zm448 64h32V160H512v32zM128 336v16h16c8.8 0 16 7.2 16 16s-7.2 16-16 16H128v16c0 8.8-7.2 16-16 16s-16-7.2-16-16V384H80c-8.8 0-16-7.2-16-16s7.2-16 16-16H96V336c0-8.8 7.2-16 16-16s16 7.2 16 16zm96 24a24 24 0 1 1 48 0 24 24 0 1 1 -48 0zm104-24a24 24 0 1 1 0 48 24 24 0 1 1 0-48z"/></svg>
